src/assets/images/logo-hackerone.svg

<svg height="74" viewBox="0 0 375 74" width="375" xmlns="http://www.w3.org/2000/svg" xmlns:xlink="http://www.w3.org/1999/xlink"><mask id="a" fill="#fff"><path d="m.02 11.6905247c.0041464.0923472.01080795.1868346.02.2834753.103 1.156.637 2.256 1.583 3.294.95 1.045 2.012 1.7 3.227 1.978 1.196.271 2.105.123 2.705-.433l5.302-3.307v29.545c0 .836.46 1.595 1.392 2.299.909.706 2.075 1.057 3.474 1.057s2.607-.351 3.62-1.057c1.018-.704 1.528-1.463 1.528-2.299v-39.722c0-.964-.498-1.742-1.479-2.341-.982-.612-2.203-.909-3.669-.909-1.461 0-2.633.297-3.529.909l-13.407 8.404c-.46812533.43847739-.7280664 1.054094-.76700001 1.8577734l.00000001.4407514z" fill="none"/></mask><mask id="b" fill="#fff"><path d="m10.321 32.725c0 2.027.559 3.554 1.693 4.604 1.129 1.045 2.615 1.57 4.437 1.57 2.387 0 4.669-1.013 6.834-3.041 2.173-2.033 3.253-4.176 3.253-6.463v-3.51h-2.357c-2.828 0-5.141.123-6.933.378-1.792.252-3.393.92-4.811 1.994-1.41 1.076-2.116 2.572-2.116 4.468zm-10.002 1.236c0-5.073 1.89-8.601 5.658-10.591 3.779-2.002 9.247-2.996 16.413-2.996h4.148v-1.757c0-2.855-.767-5.313-2.307-7.39-1.54-2.076-3.878-3.109-7.026-3.109-2.705 0-5.087.519-7.123 1.564-2.049 1.044-3.16 1.57-3.351 1.57-1.067 0-1.932-.526-2.596-1.57-.662-1.045-.988-2.2-.988-3.467 0-1.644 1.523-3.071 4.579-4.276 3.043-1.206 6.271-1.805 9.664-1.805 6.479 0 11.271 1.755 14.388 5.272 3.111 3.522 4.676 7.904 4.676 13.162v23.841c0 .897-.46 1.668-1.375 2.342-.909.654-2.062.989-3.443.989-1.264 0-2.325-.335-3.202-.989-.883-.674-1.326-1.445-1.326-2.342v-3.325c-4.215 4.945-8.958 7.416-14.241 7.416-3.65 0-6.657-1.075-9.013-3.237-2.356-2.145-3.535-5.254-3.535-9.302z" fill="none"/></mask><mask id="c" fill="#fff"><path d="m.032 27.59v-8.552c0-5.636 1.631-10.19 4.908-13.675 3.264-3.485 8.136-5.229 14.615-5.229 4.087 0 7.517.711 10.284 2.138 2.767 1.422 4.154 3.028 4.154 4.796 0 1.082-.399 2.156-1.178 3.232-.791 1.075-1.718 1.619-2.785 1.619-.314 0-1.431-.482-3.351-1.427-1.914-.947-4.037-1.427-6.362-1.427-6.922 0-10.382 3.337-10.382 10.004v8.503c0 6.667 3.49 10.004 10.474 10.004 2.387 0 4.533-.512 6.46-1.525 1.915-1.015 3.062-1.527 3.449-1.527 1.251 0 2.276.512 3.062 1.527.785 1.013 1.171 2.094 1.171 3.225 0 1.774-1.442 3.425-4.337 4.938-2.89 1.526-6.412 2.286-10.56 2.286-6.548 0-11.45-1.723-14.714-5.185-3.277-3.448-4.908-8.028-4.908-13.725z" fill="none"/></mask><mask id="d" fill="#fff"><path d="m.822 69.409v-65.262c0-.953.435-1.725 1.32-2.324.883-.606 2.037-.908 3.491-.908 1.441 0 2.656.302 3.626.908.982.599 1.46 1.371 1.46 2.324v42.274l19.721-18.242c.565-.569 1.258-.86 2.074-.86 1.068 0 2.141.514 3.209 1.527 1.073 1.013 1.602 2.088 1.602 3.232 0 .822-.283 1.521-.848 2.088l-12.173 10.927 14.818 21.467c.374.569.565 1.144.565 1.712 0 1.137-.632 2.268-1.891 3.374-1.257 1.1-2.484 1.663-3.681 1.663-1.068 0-1.945-.476-2.637-1.423l-13.869-20.614-6.89 6.266v11.871c0 .828-.503 1.582-1.509 2.286-1 .698-2.191 1.045-3.577 1.045-1.387 0-2.534-.347-3.443-1.045-.913-.704-1.368-1.458-1.368-2.286z" fill="none"/></mask><mask id="e" fill="#fff"><path d="m10.266 19.514h15.663c1.381 0 2.308-.185 2.78-.556.48-.377.706-1.131.706-2.25 0-2.49-.908-4.609-2.73-6.353-1.829-1.748-4.087-2.62-6.793-2.62-2.644 0-4.908.829-6.792 2.479-1.884 1.656-2.834 3.756-2.834 6.303zm-9.904 8.076v-9.022c0-5.005 1.92-9.325 5.755-12.971 3.841-3.64 8.461-5.463 13.868-5.463 5.153 0 9.572 1.651 13.252 4.944 3.683 3.294 5.523 7.447 5.523 12.477 0 1.94-.221 3.504-.663 4.697-.435 1.198-1.134 2.026-2.073 2.515-.945.488-1.829.791-2.645.927-.822.116-1.884.191-3.209.191h-19.904v2.2c0 3.188 1.135 5.722 3.398 7.613 2.264 1.878 5.222 2.819 8.873 2.819 2.577 0 5.007-.607 7.302-1.817 2.3-1.211 3.699-1.818 4.197-1.818 1.073 0 1.988.507 2.737 1.52.759 1.015 1.134 2.003 1.134 2.955 0 1.568-1.515 3.145-4.528 4.751-3.013 1.589-6.731 2.392-11.13 2.392-6.412 0-11.664-1.743-15.751-5.228-4.087-3.491-6.136-8.045-6.136-13.682z" fill="none"/></mask><mask id="f" fill="#fff"><path d="m.773 42.409v-38.475c0-.951.454-1.723 1.369-2.322.907-.606 2.056-.909 3.455-.909 1.245 0 2.318.303 3.195.915.885.611 1.32 1.396 1.32 2.354v4.227c1.067-2.237 2.694-4.14 4.865-5.71 2.167-1.57 4.535-2.355 7.112-2.355h3.031c1.001 0 1.877.433 2.632 1.298s1.136 1.903 1.136 3.121c0 1.211-.381 2.274-1.136 3.164-.755.902-1.631 1.348-2.632 1.348h-3.031c-3.007 0-5.67 1.297-7.965 3.886-2.3 2.589-3.448 5.939-3.448 10.041v19.43c0 .821-.502 1.581-1.509 2.273-.999.698-2.197 1.045-3.57 1.045-1.399 0-2.548-.347-3.455-1.045-.915-.704-1.369-1.458-1.369-2.286z" fill="none"/></mask><mask id="g" fill="#fff"><path d="m6.796 28.319c0 3.214 1.142 6.069 3.437 8.553 2.295 2.492 5.05 3.732 8.259 3.732 3.265 0 6.063-1.24 8.393-3.732 2.326-2.484 3.491-5.339 3.491-8.553v-10.288c0-3.096-1.177-5.865-3.54-8.324-2.361-2.454-5.135-3.683-8.344-3.683s-5.964 1.229-8.259 3.683c-2.295 2.459-3.437 5.228-3.437 8.324zm-6.135.031v-10.35c0-4.815 1.761-8.979 5.277-12.495 3.528-3.517 7.712-5.278 12.554-5.278 4.834 0 9.056 1.743 12.64 5.234 3.584 3.479 5.374 7.658 5.374 12.539v10.35c0 4.747-1.803 8.942-5.418 12.595-3.614 3.639-7.817 5.457-12.596 5.457-4.719 0-8.872-1.818-12.456-5.457-3.584-3.653-5.375-7.848-5.375-12.595z" fill="none"/></mask><mask id="h" fill="#fff"><path d="m.023 43.263v-40.187c0-.693.282-1.243.847-1.656.565-.414 1.288-.625 2.171-.625.756 0 1.418.229 1.983.68s.846.995.846 1.637v4.432c1.074-2.058 2.706-3.783 4.909-5.191 2.196-1.415 4.78-2.126 7.731-2.126 4.535 0 8.462 1.743 11.793 5.234 3.332 3.479 5.002 7.658 5.002 12.539v25.263c0 .766-.315 1.371-.946 1.803-.632.446-1.356.674-2.172.674-.755 0-1.442-.228-2.068-.674-.638-.432-.945-1.032-.945-1.791v-25.213c0-3.097-1.166-5.883-3.491-8.343-2.331-2.46-5.099-3.695-8.302-3.695-2.957 0-5.564 1.113-7.829 3.318-2.265 2.213-3.393 5.123-3.393 8.72v25.213c0 .63-.326 1.199-.951 1.704-.626.508-1.35.761-2.167.761-.883 0-1.606-.253-2.171-.761-.565-.505-.847-1.074-.847-1.716z" fill="none"/></mask><mask id="i" fill="#fff"><path d="m6.533 20.558h18.867c1.89 0 3.141-.198 3.774-.612.626-.401.939-1.279.939-2.595 0-3.146-1.112-5.914-3.351-8.305-2.227-2.399-5.044-3.585-8.436-3.585-3.27 0-6.057 1.125-8.352 3.393-2.294 2.262-3.441 4.975-3.441 8.12zm-6.129 7.792v-10.635c0-4.758 1.766-8.855 5.276-12.309 3.528-3.449 7.768-5.179 12.738-5.179 4.786 0 8.915 1.656 12.412 4.943 3.485 3.307 5.235 7.43 5.235 12.373 0 1.767-.209 3.188-.613 4.263-.418 1.076-1.075 1.823-1.99 2.274-.907.445-1.742.73-2.491.854-.759.129-1.797.191-3.116.191h-21.322v3.51c0 3.745 1.337 6.735 4.006 8.979 2.682 2.25 6.123 3.38 10.339 3.38 2.13 0 4.006-.314 5.609-.957 1.601-.625 2.828-1.268 3.675-1.897.853-.638 1.522-.952 2.03-.952.693 0 1.307.334 1.835.995.54.666.811 1.322.811 1.946 0 1.341-1.357 2.713-4.063 4.14-2.7 1.415-6.068 2.133-10.093 2.133-5.97 0-10.848-1.651-14.615-4.987-3.779-3.325-5.663-7.681-5.663-13.065z" fill="none"/></mask><g fill="none" fill-rule="evenodd"><path d="m.06 73.52h9.96v-72.72h-9.96z" fill="#000"/><g fill="#090908"><path d="m.02 46.52h22.92v-46.56h-22.92z" mask="url(#a)" transform="translate(16 27)"/><path d="m.26 46.52h36.24v-46.44h-36.24z" mask="url(#b)" transform="translate(46 27)"/><path d="m.02 46.52h34.56v-46.44h-34.56z" mask="url(#c)" transform="translate(91 27)"/><path d="m.78 73.4h39v-72.6h-39z" mask="url(#d)" transform="translate(132)"/><path d="m.26 46.52h38.52v-46.44h-38.52z" mask="url(#e)" transform="translate(175 27)"/><path d="m.7 45.8h28.2v-45.72h-28.2z" mask="url(#f)" transform="translate(221 27)"/><path d="m.66 46.52h35.88v-46.32h-35.88z" mask="url(#g)" transform="translate(252 27)"/><path d="m-.02 45.8h35.4v-45.6h-35.4z" mask="url(#h)" transform="translate(296 27)"/><path d="m.34 46.52h35.76v-46.32h-35.76z" mask="url(#i)" transform="translate(338 27)"/></g></g></svg>

<?xml version="1.0" encoding="UTF-8"?>
<svg width="375px" height="74px" viewBox="0 0 375 74" version="1.1" xmlns="http://www.w3.org/2000/svg" xmlns:xlink="http://www.w3.org/1999/xlink">
    <!-- Generator: Sketch 46.2 (44496) - http://www.bohemiancoding.com/sketch -->
    <title>HackerOne</title>
    <desc>Created with Sketch.</desc>
    <defs>
        <path d="M0.0199999982,11.6905247 C0.0241463952,11.7828719 0.0308079514,11.8773593 0.04,11.974 C0.143,13.13 0.677,14.23 1.623,15.268 C2.573,16.313 3.635,16.968 4.85,17.246 C6.046,17.517 6.955,17.369 7.555,16.813 L12.857,13.506 L12.857,43.051 C12.857,43.887 13.317,44.646 14.249,45.35 C15.158,46.056 16.324,46.407 17.723,46.407 C19.122,46.407 20.33,46.056 21.343,45.35 C22.361,44.646 22.871,43.887 22.871,43.051 L22.871,3.329 C22.871,2.365 22.373,1.587 21.392,0.988 C20.41,0.376 19.189,0.079 17.723,0.079 C16.262,0.079 15.09,0.376 14.194,0.988 L0.787,9.392 C0.318874671,9.83047739 0.0589335992,10.446094 0.0199999859,11.2497734 L0.02,11.6905248 L0.0199999982,11.6905247 Z" id="path-1"></path>
        <path d="M10.321,32.725 C10.321,34.752 10.88,36.279 12.014,37.329 C13.143,38.374 14.629,38.899 16.451,38.899 C18.838,38.899 21.12,37.886 23.285,35.858 C25.458,33.825 26.538,31.682 26.538,29.395 L26.538,25.885 L24.181,25.885 C21.353,25.885 19.04,26.008 17.248,26.263 C15.456,26.515 13.855,27.183 12.437,28.257 C11.027,29.333 10.321,30.829 10.321,32.725 Z M0.319,33.961 C0.319,28.888 2.209,25.36 5.977,23.37 C9.756,21.368 15.224,20.374 22.39,20.374 L26.538,20.374 L26.538,18.617 C26.538,15.762 25.771,13.304 24.231,11.227 C22.691,9.151 20.353,8.118 17.205,8.118 C14.5,8.118 12.118,8.637 10.082,9.682 C8.033,10.726 6.922,11.252 6.731,11.252 C5.664,11.252 4.799,10.726 4.135,9.682 C3.473,8.637 3.147,7.482 3.147,6.215 C3.147,4.571 4.67,3.144 7.726,1.939 C10.769,0.733 13.997,0.134 17.39,0.134 C23.869,0.134 28.661,1.889 31.778,5.406 C34.889,8.928 36.454,13.31 36.454,18.568 L36.454,42.409 C36.454,43.306 35.994,44.077 35.079,44.751 C34.17,45.405 33.017,45.74 31.636,45.74 C30.372,45.74 29.311,45.405 28.434,44.751 C27.551,44.077 27.108,43.306 27.108,42.409 L27.108,39.084 C22.893,44.029 18.15,46.5 12.867,46.5 C9.217,46.5 6.21,45.425 3.854,43.263 C1.498,41.118 0.319,38.009 0.319,33.961 Z" id="path-3"></path>
        <path d="M0.032,27.59 L0.032,19.038 C0.032,13.402 1.663,8.848 4.94,5.363 C8.204,1.878 13.076,0.134 19.555,0.134 C23.642,0.134 27.072,0.845 29.839,2.272 C32.606,3.694 33.993,5.3 33.993,7.068 C33.993,8.15 33.594,9.224 32.815,10.3 C32.024,11.375 31.097,11.919 30.03,11.919 C29.716,11.919 28.599,11.437 26.679,10.492 C24.765,9.545 22.642,9.065 20.317,9.065 C13.395,9.065 9.935,12.402 9.935,19.069 L9.935,27.572 C9.935,34.239 13.425,37.576 20.409,37.576 C22.796,37.576 24.942,37.064 26.869,36.051 C28.784,35.036 29.931,34.524 30.318,34.524 C31.569,34.524 32.594,35.036 33.38,36.051 C34.165,37.064 34.551,38.145 34.551,39.276 C34.551,41.05 33.109,42.701 30.214,44.214 C27.324,45.74 23.802,46.5 19.654,46.5 C13.106,46.5 8.204,44.777 4.94,41.315 C1.663,37.867 0.032,33.287 0.032,27.59 Z" id="path-5"></path>
        <path d="M0.822,69.409 L0.822,4.147 C0.822,3.194 1.257,2.422 2.142,1.823 C3.025,1.217 4.179,0.915 5.633,0.915 C7.074,0.915 8.289,1.217 9.259,1.823 C10.241,2.422 10.719,3.194 10.719,4.147 L10.719,46.421 L30.44,28.179 C31.005,27.61 31.698,27.319 32.514,27.319 C33.582,27.319 34.655,27.833 35.723,28.846 C36.796,29.859 37.325,30.934 37.325,32.078 C37.325,32.9 37.042,33.599 36.477,34.166 L24.304,45.093 L39.122,66.56 C39.496,67.129 39.687,67.704 39.687,68.272 C39.687,69.409 39.055,70.54 37.796,71.646 C36.539,72.746 35.312,73.309 34.115,73.309 C33.047,73.309 32.17,72.833 31.478,71.886 L17.609,51.272 L10.719,57.538 L10.719,69.409 C10.719,70.237 10.216,70.991 9.21,71.695 C8.21,72.393 7.019,72.74 5.633,72.74 C4.246,72.74 3.099,72.393 2.19,71.695 C1.277,70.991 0.822,70.237 0.822,69.409 Z" id="path-7"></path>
        <path d="M10.266,19.514 L25.929,19.514 C27.31,19.514 28.237,19.329 28.709,18.958 C29.189,18.581 29.415,17.827 29.415,16.708 C29.415,14.218 28.507,12.099 26.685,10.355 C24.856,8.607 22.598,7.735 19.892,7.735 C17.248,7.735 14.984,8.564 13.1,10.214 C11.216,11.87 10.266,13.97 10.266,16.517 L10.266,19.514 Z M0.362,27.59 L0.362,18.568 C0.362,13.563 2.282,9.243 6.117,5.597 C9.958,1.957 14.578,0.134 19.985,0.134 C25.138,0.134 29.557,1.785 33.237,5.078 C36.92,8.372 38.76,12.525 38.76,17.555 C38.76,19.495 38.539,21.059 38.097,22.252 C37.662,23.45 36.963,24.278 36.024,24.767 C35.079,25.255 34.195,25.558 33.379,25.694 C32.557,25.81 31.495,25.885 30.17,25.885 L10.266,25.885 L10.266,28.085 C10.266,31.273 11.401,33.807 13.664,35.698 C15.928,37.576 18.886,38.517 22.537,38.517 C25.114,38.517 27.544,37.91 29.839,36.7 C32.139,35.489 33.538,34.882 34.036,34.882 C35.109,34.882 36.024,35.389 36.773,36.402 C37.532,37.417 37.907,38.405 37.907,39.357 C37.907,40.925 36.392,42.502 33.379,44.108 C30.366,45.697 26.648,46.5 22.249,46.5 C15.837,46.5 10.585,44.757 6.498,41.272 C2.411,37.781 0.362,33.227 0.362,27.59 Z" id="path-9"></path>
        <path d="M0.773,42.409 L0.773,3.934 C0.773,2.983 1.227,2.211 2.142,1.612 C3.049,1.006 4.198,0.703 5.597,0.703 C6.842,0.703 7.915,1.006 8.792,1.618 C9.677,2.229 10.112,3.014 10.112,3.972 L10.112,8.199 C11.179,5.962 12.806,4.059 14.977,2.489 C17.144,0.919 19.512,0.134 22.089,0.134 L25.12,0.134 C26.121,0.134 26.997,0.567 27.752,1.432 C28.507,2.297 28.888,3.335 28.888,4.553 C28.888,5.764 28.507,6.827 27.752,7.717 C26.997,8.619 26.121,9.065 25.12,9.065 L22.089,9.065 C19.082,9.065 16.419,10.362 14.124,12.951 C11.824,15.54 10.676,18.89 10.676,22.992 L10.676,42.422 C10.676,43.243 10.174,44.003 9.167,44.695 C8.168,45.393 6.97,45.74 5.597,45.74 C4.198,45.74 3.049,45.393 2.142,44.695 C1.227,43.991 0.773,43.237 0.773,42.409 Z" id="path-11"></path>
        <path d="M6.796,28.319 C6.796,31.533 7.938,34.388 10.233,36.872 C12.528,39.364 15.283,40.604 18.492,40.604 C21.757,40.604 24.555,39.364 26.885,36.872 C29.211,34.388 30.376,31.533 30.376,28.319 L30.376,18.031 C30.376,14.935 29.199,12.166 26.836,9.707 C24.475,7.253 21.701,6.024 18.492,6.024 C15.283,6.024 12.528,7.253 10.233,9.707 C7.938,12.166 6.796,14.935 6.796,18.031 L6.796,28.319 Z M0.661,28.35 L0.661,18 C0.661,13.185 2.422,9.021 5.938,5.505 C9.466,1.988 13.65,0.227 18.492,0.227 C23.326,0.227 27.548,1.97 31.132,5.461 C34.716,8.94 36.506,13.119 36.506,18 L36.506,28.35 C36.506,33.097 34.703,37.292 31.088,40.945 C27.474,44.584 23.271,46.402 18.492,46.402 C13.773,46.402 9.62,44.584 6.036,40.945 C2.452,37.292 0.661,33.097 0.661,28.35 Z" id="path-13"></path>
        <path d="M0.023,43.263 L0.023,3.076 C0.023,2.383 0.305,1.833 0.87,1.42 C1.435,1.006 2.158,0.795 3.041,0.795 C3.797,0.795 4.459,1.024 5.024,1.475 C5.589,1.926 5.87,2.47 5.87,3.112 L5.87,7.544 C6.944,5.486 8.576,3.761 10.779,2.353 C12.975,0.938 15.559,0.227 18.51,0.227 C23.045,0.227 26.972,1.97 30.303,5.461 C33.635,8.94 35.305,13.119 35.305,18 L35.305,43.263 C35.305,44.029 34.99,44.634 34.359,45.066 C33.727,45.512 33.003,45.74 32.187,45.74 C31.432,45.74 30.745,45.512 30.119,45.066 C29.481,44.634 29.174,44.034 29.174,43.275 L29.174,18.062 C29.174,14.965 28.008,12.179 25.683,9.719 C23.352,7.259 20.584,6.024 17.381,6.024 C14.424,6.024 11.817,7.137 9.552,9.342 C7.287,11.555 6.159,14.465 6.159,18.062 L6.159,43.275 C6.159,43.905 5.833,44.474 5.208,44.979 C4.582,45.487 3.858,45.74 3.041,45.74 C2.158,45.74 1.435,45.487 0.87,44.979 C0.305,44.474 0.023,43.905 0.023,43.263 Z" id="path-15"></path>
        <path d="M6.533,20.558 L25.4,20.558 C27.29,20.558 28.541,20.36 29.174,19.946 C29.8,19.545 30.113,18.667 30.113,17.351 C30.113,14.205 29.001,11.437 26.762,9.046 C24.535,6.647 21.718,5.461 18.326,5.461 C15.056,5.461 12.269,6.586 9.974,8.854 C7.68,11.116 6.533,13.829 6.533,16.974 L6.533,20.558 Z M0.404,28.35 L0.404,17.715 C0.404,12.957 2.17,8.86 5.68,5.406 C9.208,1.957 13.448,0.227 18.418,0.227 C23.204,0.227 27.333,1.883 30.83,5.17 C34.315,8.477 36.065,12.6 36.065,17.543 C36.065,19.31 35.856,20.731 35.452,21.806 C35.034,22.882 34.377,23.629 33.462,24.08 C32.555,24.525 31.72,24.81 30.971,24.934 C30.212,25.063 29.174,25.125 27.855,25.125 L6.533,25.125 L6.533,28.635 C6.533,32.38 7.87,35.37 10.539,37.614 C13.221,39.864 16.662,40.994 20.878,40.994 C23.008,40.994 24.884,40.68 26.487,40.037 C28.088,39.412 29.315,38.769 30.162,38.14 C31.015,37.502 31.684,37.188 32.192,37.188 C32.885,37.188 33.499,37.522 34.027,38.183 C34.567,38.849 34.838,39.505 34.838,40.129 C34.838,41.47 33.481,42.842 30.775,44.269 C28.075,45.684 24.707,46.402 20.682,46.402 C14.712,46.402 9.834,44.751 6.067,41.415 C2.288,38.09 0.404,33.734 0.404,28.35 Z" id="path-17"></path>
    </defs>
    <g id="Page-1" stroke="none" stroke-width="1" fill="none" fill-rule="evenodd">
        <g id="HackerOne">
            <g id="Group-3" fill="#000000">
                <polygon id="Fill-1" points="0.06 73.52 10.02 73.52 10.02 0.8 0.06 0.8"></polygon>
            </g>
            <g id="Group-6" transform="translate(16.000000, 27.000000)">
                <mask id="mask-2" fill="white">
                    <use xlink:href="#path-1"></use>
                </mask>
                <g id="Clip-5"></g>
                <polygon id="Fill-4" fill="#090908" mask="url(#mask-2)" points="0.02 46.52 22.94 46.52 22.94 -0.04 0.02 -0.04"></polygon>
            </g>
            <g id="Group-9" transform="translate(46.000000, 27.000000)">
                <mask id="mask-4" fill="white">
                    <use xlink:href="#path-3"></use>
                </mask>
                <g id="Clip-8"></g>
                <polygon id="Fill-7" fill="#090908" mask="url(#mask-4)" points="0.26 46.52 36.5 46.52 36.5 0.08 0.26 0.08"></polygon>
            </g>
            <g id="Group-12" transform="translate(91.000000, 27.000000)">
                <mask id="mask-6" fill="white">
                    <use xlink:href="#path-5"></use>
                </mask>
                <g id="Clip-11"></g>
                <polygon id="Fill-10" fill="#090908" mask="url(#mask-6)" points="0.02 46.52 34.58 46.52 34.58 0.08 0.02 0.08"></polygon>
            </g>
            <g id="Group-15" transform="translate(132.000000, 0.000000)">
                <mask id="mask-8" fill="white">
                    <use xlink:href="#path-7"></use>
                </mask>
                <g id="Clip-14"></g>
                <polygon id="Fill-13" fill="#090908" mask="url(#mask-8)" points="0.78 73.4 39.78 73.4 39.78 0.8 0.78 0.8"></polygon>
            </g>
            <g id="Group-18" transform="translate(175.000000, 27.000000)">
                <mask id="mask-10" fill="white">
                    <use xlink:href="#path-9"></use>
                </mask>
                <g id="Clip-17"></g>
                <polygon id="Fill-16" fill="#090908" mask="url(#mask-10)" points="0.26 46.52 38.78 46.52 38.78 0.08 0.26 0.08"></polygon>
            </g>
            <g id="Group-21" transform="translate(221.000000, 27.000000)">
                <mask id="mask-12" fill="white">
                    <use xlink:href="#path-11"></use>
                </mask>
                <g id="Clip-20"></g>
                <polygon id="Fill-19" fill="#090908" mask="url(#mask-12)" points="0.7 45.8 28.9 45.8 28.9 0.08 0.7 0.08"></polygon>
            </g>
            <g id="Group-24" transform="translate(252.000000, 27.000000)">
                <mask id="mask-14" fill="white">
                    <use xlink:href="#path-13"></use>
                </mask>
                <g id="Clip-23"></g>
                <polygon id="Fill-22" fill="#090908" mask="url(#mask-14)" points="0.66 46.52 36.54 46.52 36.54 0.2 0.66 0.2"></polygon>
            </g>
            <g id="Group-27" transform="translate(296.000000, 27.000000)">
                <mask id="mask-16" fill="white">
                    <use xlink:href="#path-15"></use>
                </mask>
                <g id="Clip-26"></g>
                <polygon id="Fill-25" fill="#090908" mask="url(#mask-16)" points="-0.02 45.8 35.38 45.8 35.38 0.2 -0.02 0.2"></polygon>
            </g>
            <g id="Group-30" transform="translate(338.000000, 27.000000)">
                <mask id="mask-18" fill="white">
                    <use xlink:href="#path-17"></use>
                </mask>
                <g id="Clip-29"></g>
                <polygon id="Fill-28" fill="#090908" mask="url(#mask-18)" points="0.34 46.52 36.1 46.52 36.1 0.2 0.34 0.2"></polygon>
            </g>
        </g>
    </g>
</svg>
